svg/300/sharp/lab_panel-fill.svg

<svg xmlns="http://www.w3.org/2000/svg" width="48" height="48" viewBox="0 -960 960 960"><path d="M60.002-140.001v-319.998H140v-173.385h-40v-165.844h319.998v165.844h-40v173.385H580v-173.385h-40v-165.844h319.998v165.844h-40v173.385h80v319.998H60.001Zm565.383-319.998h149.23v-172.308h-149.23v172.308Zm-440 0h149.23v-172.308h-149.23v172.308Z"/></svg>

<svg xmlns="http://www.w3.org/2000/svg" width="48" height="48" viewBox="0 -960 960 960"><path d="M60-140v-320h80v-173.38h-40v-165.85h320v165.85h-40V-460h200v-173.38h-40v-165.85h320v165.85h-40V-460h80v320H60Zm565.39-320h149.22v-172.31H625.39V-460Zm-440 0h149.22v-172.31H185.39V-460Z"/></svg>
